X:1
T:O leggiadri
T:O leggiadri
T:Sigismondo d'India
T:Source : Le Musische a 2 voci di S.d'India---Libro II---Venetia---R.Amadino---1615. Editor : André Vierendeels ( 03/08/15).
T:Notes : Original clefs : C1, C1, F4 Editorial accidentals above the staff Note values have been halved 
T:(Aria)
C:Sigismondo d'India
%%score [ 1 2 ] 3
L:1/8
Q:1/4=70
M:3/4
K:C
V:1 treble nm="Soprano 1" snm="S 1"
V:2 treble nm="Soprano 2" snm="S 2"
V:3 bass nm="BC" snm="BC"
V:1
 B2 B2 B2 | B2 c2 d2 | e6- | e2 d2 c2 | d6 | d2 d2 e2 | f2 e2 d2 | e6 | e2 f2 g2 | c6- | %10
w: O leg- gia-|dr'oc- chi be-|gl'oc-|* chi miei|ca-|ri vi- vi|rag- gi del|Sol|se- re- ni'e|chia-|
w: O ce- le-|ste fa- cel-|le'ar-|* dor de'|co-|ri, ve- ri'al-|ber- ghi d'a-|mor,|d'a- mor te-|so-|
 c2 Bc Bc/d/ | e6 | d6 :| z2 B2 B2 | B2 c2 d2 | G6 | G2 G2 G2 | G2 F2 E2 | F6 | F2 E2 D2 | E6- | %21
w: ||ri.|Poi che|tan- to bra-|ma-|te di ve-|der- mi lan-|gui-|re, di ve-|der-|
w: ||ri.|Se vi|pia- ce mi-|ra-|te, un a-|man- te fe-|ri-|to, un a-|man-|
 E2 D2 C2 | D6 | D2 d2 d2 | d2 c2 B2 | c4 de | B6 | A6 |: z2 A2 G2 | ^F2 B2 A2 | G2 c2 B2 | %31
w: * mi mo-|ri-|re, di ve-|der- mi mo-|ri- * *||re.|Oc- chi|bel- li ch'a-|do- ro, mi-|
w: * te tra-|di-|to, di- te|mi- ra- te'il|mio _ _|co-|re.-|Oc- chi|bel- li ch'a-|do- ro, pian-|
 A2 d2 c2 | B2 e2 d2 | d4 ^c2 | d2 d2 c2 | B2 e2 d2 | c2 f2 e2 | d2 G2 F2 | E2 A2 G2 | G4 ^F2 | %40
w: ra- te, mi-|ra- te ch'io|mo- *|ro, oc- chi|bel- li ch'a-|do- ro, mi-|ra- te, mi-|ra- te ch'io|mo- *|
w: ga- te, pia-|ga- te d'a-|mo- *|re, co- chi|bel- li ch'a-|do- ro, pian-|ga- te, pian-|ga- te d'a-|mo- *|
 G6 | z4 d2 | B2 e2 d2 | c2 A4 | z6 | ^F2 G4- | G4 ^F2 | G6 :| %48
w: ro,|mi-|ra- te, mi-|ra- te||ch'io mo-||ro.|
w: re,|pian-|ga- te, pian-|ga- te||d'a- mo-||re.|
V:2
 z6 | G2 G2 G2 | G2 A2 B2 | c2 B2 A2 | B6 | B2 B2 c2 | d6- | d2 c2 B2 | c6 | e2 f2 g2 | d6 | %11
w: |O leg- gia-|dr'oc- chi be-|gl'oc- chi miei|ca-|ri vi- vi|rag-|* gi del|Sol|se- re- ni'e|chia-|
w: |O ce- le-|ste fa- cel-|le'ar- dor de'|co-|ri, ve- ri'al-|ber-|* ghi d'a-|mor,|d'a- mor te-|so-|
 d4 ^c2 | d6 :| z6 | z2 E2 E2 | E2 F2 G2 | C6 | C2 C2 D2 | D6- | D2 C2 B,2 | C6 | C2 c2 c2 | %22
w: |ri.||Poi che|tan- to bra-|ma-|te di ve-|der-|* mi lan-|gui-|re, di ve-|
w: |ri.||Se vi|pia- ce mi-|ra-|te, un a-|man-|* te fe-|ri-|te, un a-|
 d2 B2 A2 | B6- | B4 cd | A6- | A4 ^G2 | A6 |: z6 | z2 d2 c2 | B2 e2 d2 | c2 f2 e2 | d2 G2 F2 | %33
w: der- mi mo-|ri-||||re.||Oc- chi|bel- li ch'a-|do- ro, mi-|ra- te, mi-|
w: man- te tra-|di-||||to.||Oc- chi|bel- li ch'a-|do- ro, pian-|ga- te,- pian-|
 E2 A2 G2 | G4 ^F2 | G6 | z2 A2 G2 | ^F2 B2 A2 | G2 c2 B2 | A2 d2 c2 | B2 c2 B2 | A6 | G4 G2 | %43
w: ra- te ch'io|mo- *|ro,|oc- chi|bel- li ch'a-|do- ro, mi-|ra- te, mi-|ra- te ch'io|mo-|ro, mi-|
w: ga- te d'a-|mo- *|re,|oc- chi|bel- li ch'a-|do- ro, pian-|ga- te, pian-|ga- te d'a-|mo-|re, pian-|
 E2 A2 G2 |"^-natural" F2 D4 | z4 d2 | A6 | G6 :| %48
w: ra- te, mi-|ra- te|ch'io|mo-|ro.|
w: ga- te, pian-|ga- te|d'a-|mo-|re.|
V:3
 G,6- | G,6 | C,6- | C,6 | G,6- | G,6 | D,6 | A,6- | A,6- | A,6 | G,6 | A,,6 | D,6 :| G,6 | E,6- | %15
 E,6 | A,,6- | A,,6 | A,,6- | A,,6 | A,,6- | A,,6 | G,,6- | G,,6- | G,,6 | F,,6 | E,,6 | A,,6 |: %28
 D,6- | D,6 | E,6 | F,6 |"^#" G,6 | A,6 | D,6 | G,,6 | A,,6 | B,,6 | C,6 | D,6 | E,6 | ^F,6 | G,6 | %43
 A,6 | D,6- | D,2 G,,4 | D,6 | G,,6 :| %48

